!!! OTL: Berkowitz584
!!! Chapter: 1
!!! Section: V
!!! Page: 147
!!! Mode: 
!!! Encoder: AR
**kern
*staff1
=1-
!!pagebreak:original
*clefC3
*k[]
*C:
*M3/4
4d-\
4e-\
4f\
=2
4dn\
4en\
4f#\
=3
2a#\
4g#\
=4
2.e\
=5
2gn\
4e-\
=6
4f#\
2d\
=7
2g\
4e-\
=8
4b-\
2g-\
=9
!!linebreak:original
2bn\
4gn\
=10
2e-\
4f#\
=11
4a\
4a-\
4fn\
=12
4d\
2B/
=13
4B-/
4d\
4f#\
=14
4fn\
4d-\
4e-\
=15
2.c\
==
*-
